packages/cfpb-design-system/src/components/cfpb-icons/icons/x-square.svg

<svg viewBox="0 0 16 19" xmlns="http://www.w3.org/2000/svg"><path d="m15.9 1.7v15.8h-15.9v-15.8h15.8zm-7.1 7.1 3.3-3.8h-.8l-2.8 3.3-2.3-3.3h-2.6l3.4 5-3.4 4h.8l3-3.5 2.4 3.5h2.6zm-1 1.2-.3-.5-2.8-4h1.2l2.2 3.2.3.5 2.9 4.2h-1.2l-2.4-3.4z"/></svg>

<svg xmlns="http://www.w3.org/2000/svg" viewBox="0 0 16 19" class="cf-icon-svg cf-icon-svg--x-square"><path d="M15.9 1.7v15.8H0V1.7h15.8zM8.8 8.8 12.1 5h-.8L8.5 8.3 6.2 5H3.6L7 10l-3.4 4h.8l3-3.5L9.8 14h2.6zm-1 1.2-.3-.5-2.8-4h1.2l2.2 3.2.3.5 2.9 4.2h-1.2L7.7 10z"/></svg>
